X:1735
T:Earl Moira's WelcomeTo Scotland. JMT070
O:england
M:4/4
L:1/8
Q:130
S:J.Moore,Tyneside,1841.(49)
R:Strathspey
A:Northumbria
K:F
C|:F<FF<F Ac~c2|B>GA>F E/F/G/F/ EC|F>FF>F Ac~c2|d>feg f/g/a/g/ fa:|
|:f>gaf gfec|d>e {de}fd c/d/c/B/ AF|f>gaf gfec|d>f e/f/g/e/ f2-(3fga|
bgaf gfdf|d/c/B/A/ fA B/A/G/F/ GA|F<FF>A Bd~d2-|c>fe>g f/g/a/g/ fa:|
|:AFcF d/c/B/A/ Bf|AFcF GABd|AFcF d/c/B/A/ cf|d>fe>g f/g/a/g/ fa:|
|:fafa eg c2|d>efd c/d/c/B/ AF|f/g/a f/g/a e/f/g c2|d>fe>gf3f|
dbca BgAf|""A/B/c/B/ AF E/F/G/F/ ED|(3FGA (3GAB (3ABc (3Bcd|c>fe>g f/g/
a/g/ fa:|]


